src/images/svg/bg-bottom.svg

<svg width="1280" height="1600" viewBox="0 0 1280 1600" fill="none" xmlns="http://www.w3.org/2000/svg">
<path d="M67.8386 379.697C81.4165 456.628 30.1222 450.405 2.77778 437.678V1382.34C2.77779 1566.94 -10.2222 1486.94 2.77778 1538.94C10.6676 1570.5 53.6949 1417.69 42.38 1382.34C31.0651 1346.98 33.8939 1280.52 83.3966 1266.38C132.899 1252.23 139.971 1219.71 165.43 1178.7C190.888 1137.69 255.949 1057.08 414.358 1119.3C572.767 1181.53 677.43 1124.96 752.391 1068.39C900.899 956.328 1152.78 1068.94 1222.78 1164.94C1259.51 1215.32 1159.3 1472.93 1222.78 1496.94C1254.49 1508.94 1282.78 1729.51 1282.78 1484.94V364.141C1281.83 374.512 1274.86 392.142 1254.49 379.697C1194.52 349.152 1219.13 255.722 1238.93 212.826C1249.78 171.815 1253.36 75.6522 1180.94 19.0858C1095.78 -47.4404 845.165 81.3093 699.778 81.3091C540.938 81.3089 463.861 44.5408 369.098 10.6009C274.336 -23.3389 199.374 34.6417 169.673 81.309C139.971 127.976 138.557 146.36 93.2972 167.573C4.1922 200.099 50.8662 283.534 67.8386 379.697Z" fill="#FEF3E4"/>
</svg>

<svg xmlns="http://www.w3.org/2000/svg" width="1280" height="1600" fill="none"><path fill="#FEF3E4" d="M67.839 379.697c13.578 76.931-37.717 70.708-65.061 57.981v944.662c0 184.6-13 104.6 0 156.6 7.89 31.56 50.917-121.25 39.602-156.6-11.315-35.36-8.486-101.82 41.017-115.96 49.502-14.15 56.574-46.67 82.033-87.68 25.458-41.01 90.519-121.62 248.928-59.4 158.409 62.23 263.072 5.66 338.033-50.91 148.508-112.062 400.389.55 470.389 96.55 36.73 50.38-63.48 307.99 0 332 31.71 12 60 232.57 60-12V364.141c-.95 10.371-7.92 28.001-28.29 15.556-59.97-30.545-35.36-123.975-15.56-166.871 10.85-41.011 14.43-137.174-57.99-193.74-85.16-66.526-335.775 62.223-481.162 62.223-158.84 0-235.917-36.768-330.68-70.708-94.762-33.94-169.724 24.04-199.425 70.708-29.702 46.667-31.116 65.051-76.376 86.264-89.105 32.526-42.43 115.961-25.458 212.124Z"/></svg>
